client/src/assets/CurrentOrders.svg

<?xml version="1.0" encoding="utf-8"?>
<!-- Generator: Adobe Illustrator 25.2.3, SVG Export Plug-In . SVG Version: 6.00 Build 0)  -->
<svg version="1.1" id="Layer_1" xmlns="http://www.w3.org/2000/svg" xmlns:xlink="http://www.w3.org/1999/xlink" x="0px" y="0px"
	 viewBox="0 0 24 24" style="enable-background:new 0 0 24 24;" xml:space="preserve">
<style type="text/css">
	.st0{fill:#FBBC05;}
</style>
<path class="st0" d="M11,7h6v2h-6V7z M11,11h6v2h-6V11z M11,15h6v2h-6V15z M7,7h2v2H7V7z M7,11h2v2H7V11z M7,15h2v2H7V15z M20.1,3
	H3.9C3.4,3,3,3.4,3,3.9v16.2C3,20.5,3.4,21,3.9,21h16.2c0.4,0,0.9-0.5,0.9-0.9V3.9C21,3.4,20.5,3,20.1,3z M19,19H5V5h14V19z"/>
</svg>

<svg width="24" height="24" viewBox="0 0 24 24" fill="none" xmlns="http://www.w3.org/2000/svg">
<path d="M11 7H17V9H11V7ZM11 11H17V13H11V11ZM11 15H17V17H11V15ZM7 7H9V9H7V7ZM7 11H9V13H7V11ZM7 15H9V17H7V15ZM20.1 3H3.9C3.4 3 3 3.4 3 3.9V20.1C3 20.5 3.4 21 3.9 21H20.1C20.5 21 21 20.5 21 20.1V3.9C21 3.4 20.5 3 20.1 3ZM19 19H5V5H19V19Z" fill="black"/>
</svg>
